X: 1
T:Cromartie Rant, The
T:(strathspey)
R:strathspey
C:Tony Upton, 2/11/99
N:This tune reminds me of some of the tunes that were composed back in the
N:700's. My inspiration for the title was the tune "Firth of Cromartie," a
N:une composed by John and Andrew Gow, sons of famous Scottish fiddler/com
N:ser Niel Gow.
M:4/4
L:1/8
Q:1/4=156
K:Gdor
"Gm"G<GB/A/G B>GA>B|"Bb"G<A"Dm"F>A "F"c/B/AF>A|"Gm"G<GB/A/G "Bb"B/c/dB>d
|"C"cgd>c "Bb"B<GG>A|
"Gm"G<GB/A/G B>GA>B|"Bb"G<A"Dm"F>A "F"c/B/A"Dm"F>A|"Gm"G<GB/A/G "Bb"B/c/
dB>d|"C"cgd>c "Bb"B<GG>z||
"Gm"GB "Bb"Ff "Dm"d/c/BG>A|"Gm"G<DB,>D "F"CGF>A|
"Gm"d/c/B/A/G>D "C"C<GG>A|
"Gm"GB "Bb"Ff "Dm"d/c/BG>A|"Bb"F>DB,<D ^C<ED>^F|
"Gm"Ggd>=c "Bb"B<G.G2||
% Output from ABC2Win  Version 2.1 h on 13/02/2002
